!!!OTL: Der Tod als Erloeser Ich bin ein armes Maedchen,
!!!ARE: Europa, Mitteleuropa, Deutschland (BRD), Pfalz
!!!YOR: 5, S. 317
!!    1909 gedruckt in Kaiserslautern
!!!SCT: Q0120A
!!!YEM: Copyright 1995, estate of Helmut Schaffrath.
**kern
*ICvox
*Ivox
*M6/8
*k[f#]
*G:
{8g
=1
4g
8e
4cc
8g
=2
8e
4e
4r}
{16g
16g
=3
4g
8e
4a
8g
=4
4.d
4r}
{8d
=5
4d
8d
4d
8d
=6
4g
8b
4b}
{16b
16b
=7
4cc
8cc
4f#
8f#
=8
4.g
4r}
==
!!!AGN: Ballade, Klage am Grab, Geist, Tod
!! Modulation C - G.
!!!ONB: ESAC (Essen Associative Code) Database: BALLADE
!!!AMT: compound duple
!!!AIN: vox
!!!EED: Helmut Schaffrath
!!!EEV: 1.0
*-
